src/16/panel/whatsie-tray-attention.svg

<svg xmlns="http://www.w3.org/2000/svg" width="16" height="16" version="1.1">
 <defs>
  <style id="current-color-scheme" type="text/css">
   .ColorScheme-Text { color:#dfdfdf; } .ColorScheme-Highlight { color:#4285f4; }
  </style>
 </defs>
 <path style="fill:currentColor" class="ColorScheme-Text" d="M 8 1 C 7.831125 1 7.665375 1.0079803 7.5 1.0195312 C 7.479 1.0211013 7.4585 1.0216875 7.4375 1.0234375 C 4.937275 1.2207465 2.8179969 2.7233875 1.7480469 4.8515625 C 1.6788344 4.989375 1.6090281 5.1286844 1.5488281 5.2714844 C 1.2211406 6.0114719 1.0421406 6.795475 1.0097656 7.6171875 C 1.0083656 7.6443125 1.0069994 7.6710156 1.0058594 7.6972656 C 1.0036694 7.7760156 1.0014331 7.8539688 1.0019531 7.9335938 C 1.0016981 7.9554687 1 7.978125 1 8 C 1 8.81375 1.1452125 9.5910319 1.3984375 10.316406 C 1.4829756 10.58658 1.588175 10.859927 1.6992188 11.134766 A 2.5 2.5 0 0 1 2.5 11 A 2.5 2.5 0 0 1 5 13.5 A 2.5 2.5 0 0 1 4.7734375 14.535156 C 5.1635421 14.498354 5.4579565 14.559406 6.0585938 14.748047 C 6.5175313 14.892372 7.0400594 14.969234 7.6308594 14.990234 C 7.6553594 14.992034 7.6805781 14.991287 7.7050781 14.992188 C 7.7855778 14.994694 7.8660936 15 7.9492188 15 L 7.9667969 15 L 8 15 C 8.195125 15 8.3884531 14.989489 8.5800781 14.974609 C 10.310828 14.851234 11.700797 14.211516 12.951172 12.962891 C 13.981922 11.933891 14.621047 10.663984 14.873047 9.3339844 C 14.896677 9.2132344 14.915021 9.0901719 14.931641 8.9667969 C 14.942141 8.8906719 14.953056 8.8144063 14.960938 8.7382812 C 14.977556 8.5746563 14.986928 8.4093125 14.992188 8.2421875 C 14.993887 8.2001875 14.996094 8.1591875 14.996094 8.1171875 C 14.996971 8.0778165 15 8.039375 15 8 C 15 4.18675 11.981234 1.1076219 8.1933594 1.0058594 C 8.1636094 1.0045469 8.1332656 1.0043438 8.1035156 1.0039062 C 8.0685156 1.0033812 8.035 1 8 1 z M 4 7 A 1 1 0 0 1 5 8 A 1 1 0 0 1 4 9 A 1 1 0 0 1 3 8 A 1 1 0 0 1 4 7 z M 8 7 A 1 1 0 0 1 9 8 A 1 1 0 0 1 8 9 A 1 1 0 0 1 7 8 A 1 1 0 0 1 8 7 z M 12 7 A 1 1 0 0 1 13 8 A 1 1 0 0 1 12 9 A 1 1 0 0 1 11 8 A 1 1 0 0 1 12 7 z"/>
 <circle style="fill:currentColor" class="ColorScheme-Highlight" cx="2.5" cy="13.5" r="1.5"/>
</svg>

<svg xmlns="http://www.w3.org/2000/svg" width="16" height="16"><defs><style id="current-color-scheme" type="text/css">.ColorScheme-Text{color:#dfdfdf;}.ColorScheme-Highlight{color:#5294e2;}</style></defs><path d="M8 1c-.169 0-.335.008-.5.02l-.063.003a6.98 6.98 0 0 0-5.689 3.829c-.07.137-.139.277-.2.42a6.365 6.365 0 0 0-.542 2.425c-.002.079-.005.157-.004.237L1 8c0 .814.145 1.591.398 2.316.085.27.19.544.301.819A2.5 2.5 0 0 1 2.5 11 2.5 2.5 0 0 1 5 13.5a2.5 2.5 0 0 1-.227 1.035c.39-.037.685.024 1.286.213.459.144.981.221 1.572.242.024.002.05.001.074.002.08.003.161.008.244.008H8c.195 0 .388-.01.58-.025 1.73-.124 3.12-.763 4.371-2.012a6.933 6.933 0 0 0 1.98-3.996c.011-.076.022-.153.03-.229a7.13 7.13 0 0 0 .031-.496c.002-.042.004-.083.004-.125.001-.04.004-.078.004-.117a6.981 6.981 0 0 0-6.807-6.994l-.09-.002C8.07 1.004 8.036 1 8 1zM4 7a1 1 0 0 1 1 1 1 1 0 0 1-1 1 1 1 0 0 1-1-1 1 1 0 0 1 1-1zm4 0a1 1 0 0 1 1 1 1 1 0 0 1-1 1 1 1 0 0 1-1-1 1 1 0 0 1 1-1zm4 0a1 1 0 0 1 1 1 1 1 0 0 1-1 1 1 1 0 0 1-1-1 1 1 0 0 1 1-1z" fill="currentColor" class="ColorScheme-Text"/><circle cx="2.5" cy="13.5" r="1.5" fill="currentColor" class="ColorScheme-Highlight"/></svg>
